X:1
T:Una Furtiva Lagrima
T:Una Furtiva Lagrima
T:from "L'Elisir d'Amore
T:Donizetti
C:Donizetti
%%score 1 2 3
L:1/8
M:6/8
K:C
V:1 treble nm="Flute" snm="Fl."
V:2 treble transpose=-2 nm="B♭ Clarinet" snm="B♭ Cl."
V:3 treble transpose=-2 nm="B♭ Clarinet" snm="B♭ Cl."
V:1
"^Larghetto" z z z4 | z6 | z3!mp! (a/>^g/ b2) | z6 | z3 (b/>a/ c'2) | c z2 B2 z | c c2 z c2 | %7
 F2 z ^F2 z | ^G3 B3 | ^G z z E z2 | (eBB cd/8c/8B3/4A | ^G3) E z2 | ^G6 |!mf! (e3 c2 e | gfe def | %15
 c2 G/>G/ e2 d | c3)"_dim." (dcB | A6) |!mp! e z z4 | z3 (a/>^g/ b2) | d z z4 | z3 (b/>a/ c'2) | %22
 e z e B2 B | c2 c c2 c | F3 ^F3 | ^G3 A2 z | z6 | ^G3 c3 | ^G3/2 z/ z3/2 B3/2 z | %29
!<(! ^GGA B^cd!<)! |[K:A]!mf! (fec edB | A3) (^A/B/c/d/e/f/) | (fAA Bdc | A3) e3 | %34
 (fec e/^d/f/e/=d/B/ | A3) Bc/d/e/f/ | fAA G2"_dim." c/>B/ | A3 a2 z |] %38
V:2
[K:D]"^Larghetto" z6 |"^cantabile"!mp! (fBB B2 B | B/>^A/ c2) z z2 | (gccc/8d/8e3/4dc | B3) z z2 | %5
 (f^ef a2 g | ^e/>f/ f2) z f2 | (efe dcB | F3) z z2 | (fcc de/8d/8c3/4B | c3) z z2 | (fgf dcB | %12
 f6) |!mf! A6 | (fed B3) | F3 (A2 G | F3)"_dim." (cBF | D6) |!mp! (fBB B2 B | B/>^A/ c2) z z2 | %20
 (gccc/8d/8e3/4dc | B3) f g2 | (f^ef a2 g | ^e2 f f2) (f | fe>e edd | c3) z z2 | %26
 (fcc de/8d/8c3/4B | c3) B2 (f | f>cc/c/ e>dc/B/ |!<(! f3) ^ABc!<)! |[K:B]!mf! edB dcA | G3 G3 | %32
 dFF AAA | GDD dec | (edB dcc | G)DD GCC | BFF E2 z |"_dim." F3 d2 z |] %38
V:3
[K:D]"^Larghetto"!mp! (B,FB dBF) | (B,FB dBF) | (CF^A eAF) | (^A,EG c^AF) | (B,FB dBF) | %5
 (B,FB) (A,Gc) | (DAd) (DAd) | E2 z ^E2 z | (F,CF) (F,DF) | (F,C^A) (F,DB) | (F,C^A) (F,B,D) | %11
 (F,C^A) (F,DB) | (F,CE ^AFC) |!mf! (DFA FDA,) | (G,B,D GFE) | (A,DF) (A,B,C) | %16
 (DA,F)"_dim." (F,^G,^A,) | (B,DF DB,F,) |!mp! (B,DF DB,D) | (CF^A FCF) | (^A,EG ^AGE) | %21
 (B,FD B,FD) | (B,DF) (A,EB) | (DAd AFD) | E3 ^E z2 | (F^AF DFD) | (CF^A, F,B,D) | (F^AF DFD) | %28
 (CF^A, F,B,D) |!<(! F,2 F F,FF,!<)! |[K:B]!mf! B,BB F,cc | G,BB E z2 | F,BB F,FF | %33
 (B,/F/B/F/B/F/) (F,/F/C/F/C/F/) | B,BB F,AA | G,BB E,EE | F,BB F2 z |"_dim." BFD B,2 z |] %38

